raw-svg/star.svg

<svg viewBox="0 0 24 24" xmlns="http://www.w3.org/2000/svg"><path d="m17.2 20.75a.73.73 0 0 1 -.35-.09l-4.85-2.55-4.85 2.55a.75.75 0 0 1 -.79-.05.76.76 0 0 1 -.3-.74l.94-5.4-3.94-3.82a.75.75 0 0 1 -.18-.77.74.74 0 0 1 .6-.51l5.42-.79 2.43-4.91a.78.78 0 0 1 1.34 0l2.43 4.91 5.42.79a.74.74 0 0 1 .6.51.75.75 0 0 1 -.18.77l-3.94 3.82.93 5.4a.76.76 0 0 1 -.3.74.79.79 0 0 1 -.43.14zm-5.2-4.23a.85.85 0 0 1 .35.08l3.85 2-.73-4.29a.78.78 0 0 1 .21-.67l3.12-3-4.31-.64a.76.76 0 0 1 -.56-.41l-1.93-3.9-1.93 3.91a.76.76 0 0 1 -.56.41l-4.31.63 3.12 3a.78.78 0 0 1 .21.67l-.73 4.32 3.85-2a.85.85 0 0 1 .35-.11z"/></svg>

<svg xmlns="http://www.w3.org/2000/svg" viewBox="0 0 24 24"><g id="star-o"><path d="M17.2,20.75a.73.73,0,0,1-.35-.09L12,18.11,7.15,20.66a.75.75,0,0,1-.79-.05.76.76,0,0,1-.3-.74L7,14.47,3.06,10.65a.75.75,0,0,1-.18-.77.74.74,0,0,1,.6-.51L8.9,8.58l2.43-4.91a.78.78,0,0,1,1.34,0L15.1,8.58l5.42.79a.74.74,0,0,1,.6.51.75.75,0,0,1-.18.77L17,14.47l.93,5.4a.76.76,0,0,1-.3.74A.79.79,0,0,1,17.2,20.75ZM12,16.52a.85.85,0,0,1,.35.08l3.85,2-.73-4.29a.78.78,0,0,1,.21-.67l3.12-3L14.49,10a.76.76,0,0,1-.56-.41L12,5.69,10.07,9.6a.76.76,0,0,1-.56.41l-4.31.63,3.12,3a.78.78,0,0,1,.21.67L7.8,18.63l3.85-2A.85.85,0,0,1,12,16.52Z"/></g></svg>
